academia.svg

<?xml version="1.0" encoding="UTF-8" standalone="no"?>
<!-- Generator: Adobe Illustrator 19.1.0, SVG Export Plug-In . SVG Version: 6.00 Build 0)  -->

<svg
   xmlns:dc="http://purl.org/dc/elements/1.1/"
   xmlns:cc="http://creativecommons.org/ns#"
   xmlns:rdf="http://www.w3.org/1999/02/22-rdf-syntax-ns#"
   xmlns:svg="http://www.w3.org/2000/svg"
   xmlns="http://www.w3.org/2000/svg"
   xmlns:sodipodi="http://sodipodi.sourceforge.net/DTD/sodipodi-0.dtd"
   xmlns:inkscape="http://www.inkscape.org/namespaces/inkscape"
   version="1.1"
   id="Layer_1"
   x="0px"
   y="0px"
   width="16.637169"
   height="16"
   viewBox="0 0 16.637169 16"
   enable-background="new 0 0 23.5 22.6"
   xml:space="preserve"
   sodipodi:docname="academia.svg"
   inkscape:version="0.92.3 (2405546, 2018-03-11)"><metadata
     id="metadata9"><rdf:RDF><cc:Work
         rdf:about=""><dc:format>image/svg+xml</dc:format><dc:type
           rdf:resource="http://purl.org/dc/dcmitype/StillImage" /><dc:title></dc:title></cc:Work></rdf:RDF></metadata><defs
     id="defs7" /><sodipodi:namedview
     pagecolor="#ffffff"
     bordercolor="#666666"
     borderopacity="1"
     objecttolerance="10"
     gridtolerance="10"
     guidetolerance="10"
     inkscape:pageopacity="0"
     inkscape:pageshadow="2"
     inkscape:window-width="1315"
     inkscape:window-height="713"
     id="namedview5"
     showgrid="false"
     fit-margin-top="0"
     fit-margin-left="0"
     fit-margin-right="0"
     fit-margin-bottom="0"
     inkscape:zoom="10.442478"
     inkscape:cx="11.75"
     inkscape:cy="11.3"
     inkscape:window-x="51"
     inkscape:window-y="27"
     inkscape:window-maximized="1"
     inkscape:current-layer="Layer_1" /><path
     d="m 4.7433628,16 v -0.849558 0 0 0 c 0,0 0,0 0,0 -1.2743363,-0.141592 -2.0530973,-0.283185 -1.4867256,-1.699115 0.070796,-0.141592 0.4247787,-1.061946 0.920354,-2.336283 h 5.8053097 l 0.8495571,2.123894 c 0.141593,0.353982 0.21239,0.637168 0.21239,0.849558 0,0.707964 -0.637168,0.99115 -1.8407082,0.99115 v 0.849558 H 16.637168 V 15.079646 C 16,14.938053 15.504425,14.79646 15.292035,14.230088 L 9.5575221,0 H 5.4513274 L 6.159292,1.7699115 1.3451327,14.300885 C 1.1327434,14.938053 0.63716814,15.00885 0,15.150442 V 16 Z M 7.0088496,3.681416 9.3451327,9.557522 H 4.7433628 C 5.5929204,7.292035 6.6548673,4.672566 7.0088496,3.681416 Z"
     id="path2"
     inkscape:connector-curvature="0" /></svg>

<svg xmlns="http://www.w3.org/2000/svg" width="16.637" height="16" viewBox="0 0 16.637169 16" enable-background="new 0 0 23.5 22.6" aria-labelledby="title"><title>Academia.edu Icon</title><path d="M4.74 16v-.85c-1.27-.14-2.05-.28-1.48-1.7.07-.14.42-1.06.92-2.33h5.8l.85 2.12c.14.35.2.64.2.85 0 .7-.62.98-1.83.98v.85h7.44v-.85c-.64-.14-1.14-.28-1.35-.85L9.55 0h-4.1l.7 1.77-4.8 12.53c-.23.64-.72.7-1.36.85V16zM7 3.68l2.35 5.88h-4.6C5.58 7.3 6.64 4.66 7 3.68z"/></svg>
